images/icons/share-icon.svg

<svg width="21px" height="20px" viewBox="0 0 21 20" version="1.1" xmlns="http://www.w3.org/2000/svg" xmlns:xlink="http://www.w3.org/1999/xlink">
    <!-- Generator: Sketch 50.2 (55047) - http://www.bohemiancoding.com/sketch -->
    <desc>Created with Sketch.</desc>
    <defs></defs>
    <g id="Wireframes---Desktop" stroke="none" stroke-width="1" fill="none" fill-rule="evenodd" opacity="0.5">
        <g id="Dash---My-Files---Estate-Planning---Home-Management-(list---selected)" transform="translate(-1116.000000, -366.000000)" fill="#000000">
            <g id="Group-3" transform="translate(957.000000, 239.000000)">
                <g id="Page-1" transform="translate(159.000000, 127.000000)">
                    <path d="M20.2135556,6.70222222 C20.2083467,6.67965333 20.2005333,6.65708444 20.1901178,6.63624889 L20.1762289,6.60934 L20.1397711,6.55986 L20.1284867,6.54510222 L13.6762644,0.0946577778 C13.6554311,0.0738244444 13.6328622,0.0582 13.6076889,0.0443111111 L13.58946,0.0347622222 C13.5460578,0.0130622222 13.4974467,4e-05 13.4479667,4e-05 L7.11196667,4e-05 C5.44703333,4e-05 4.09285556,1.35421778 4.09285556,3.01915111 C4.09285556,3.19710222 4.23695333,3.34206222 4.41576667,3.34206222 C4.59371778,3.34206222 4.73867778,3.19796444 4.73867778,3.01915111 C4.73867778,1.71012889 5.80378889,0.644928889 7.1129,0.644928889 L13.1260111,0.644928889 L13.1260111,4.19182 C13.1260111,5.79250889 14.4281,7.09537556 16.0295667,7.09537556 L19.5782333,7.09537556 L19.5782333,16.9807089 C19.5782333,18.2897311 18.5131222,19.3549302 17.2040111,19.3549302 L7.1129,19.3549302 C5.80387778,19.3549302 4.73867778,18.28982 4.73867778,16.9807089 C4.73867778,16.8027578 4.59458,16.6577978 4.41576667,16.6577978 C4.23781556,16.6577978 4.09285556,16.8018956 4.09285556,16.9807089 C4.09285556,18.6456422 5.4479,19.9998193 7.11285556,19.9998193 L17.2030778,19.9998193 C18.8680111,19.9998193 20.2221889,18.6456422 20.2221889,16.9807089 L20.2221889,6.77404222 C20.2221889,6.75320889 20.2195844,6.73324444 20.2161111,6.71327778 L20.2135556,6.70222222 Z M13.7708889,4.19177778 L13.7708889,1.10155556 L19.1197778,6.45044444 L16.0286667,6.45044444 C14.7838667,6.45044444 13.7708889,5.43742222 13.7708889,4.19177778 Z" id="Fill-1"></path>
                    <path d="M4.29244444,6.25088889 C4.16657556,6.12502 3.96257778,6.12502 3.83584444,6.25088889 L0.315844444,9.77088889 C0.285462222,9.80127111 0.262024444,9.83686222 0.245531111,9.87679111 L0.243794889,9.882 C0.230774,9.91759111 0.222093556,9.95665333 0.222093556,9.99832 C0.222093556,10.0399867 0.230774,10.0790489 0.244662444,10.1155067 L0.246398667,10.1207156 C0.262891778,10.1606467 0.286329778,10.1962356 0.316712,10.2266178 L3.83671111,13.7466178 C3.90008,13.8099867 3.98254444,13.8412356 4.065,13.8412356 C4.14746444,13.8412356 4.22993111,13.8099867 4.29328889,13.7466178 C4.41915778,13.6207489 4.41915778,13.4167511 4.29328889,13.2900178 L1.32373422,10.3213511 L9.24995556,10.3213511 C9.42790667,10.3213511 9.57286667,10.1772533 9.57286667,9.99844 C9.57286667,9.82048889 9.42876889,9.67552889 9.24995556,9.67552889 L1.32373422,9.67552889 L4.2924,6.70686222 C4.41913556,6.58099333 4.41913556,6.37699556 4.2924,6.25112889 L4.29244444,6.25088889 Z" id="Fill-2"></path>
                </g>
            </g>
        </g>
    </g>
</svg>

<svg height="24" viewBox="0 0 24 24" width="24" xmlns="http://www.w3.org/2000/svg"><g fill-rule="evenodd" opacity=".5" transform="matrix(1.1949143 0 0 1.1949143 -.212781 .101749)"><path d="m20.213556 6.7022222c-.0052-.022569-.01302-.045138-.02344-.065973l-.013887-.0269092-.036458-.04948-.011284-.0147578-6.452223-6.45044442c-.020833-.02083334-.043402-.03645778-.068575-.05034667l-.018229-.00954889c-.043402-.0217-.092013-.03472222-.141493-.03472222h-6.3360003c-1.6649334 0-3.0191111 1.3541778-3.0191111 3.0191111 0 .1779511.1440977.3229111.3229111.3229111.1779511 0 .3229111-.1440978.3229111-.3229111 0-1.3090222 1.0651111-2.37422221 2.3742222-2.37422221h6.013111v3.54689111c0 1.6006889 1.302089 2.9035556 2.903556 2.9035556h3.548666v9.8853334c0 1.309022-1.065111 2.374221-2.374222 2.374221h-10.091111c-1.3090222 0-2.3742222-1.06511-2.3742222-2.374221 0-.177951-.1440978-.322911-.3229111-.322911-.1779511 0-.3229111.144098-.3229111.322911 0 1.664933 1.3550444 3.01911 3.02 3.01911h10.0902224c1.664933 0 3.019111-1.354177 3.019111-3.01911v-10.2066668c0-.020833-.0026-.040798-.0061-.060764zm-6.442667-2.5104444v-3.0902222l5.348889 5.3488888h-3.091111c-1.2448 0-2.257778-1.0130222-2.257778-2.2586666z"/><path d="m4.2924444 6.2508889c-.1258688-.1258689-.3298666-.1258689-.4566 0l-3.51999996 3.52c-.0303822.030382-.05382.065973-.0703133.1059022l-.00173625.0052089c-.0130209.035591-.0217013.074653-.0217013.11632s.00868.080729.0225689.117187l.001736.0052c.0164931.03993.0399311.07552.0703133.105902l3.51999911 3.52c.063369.06337.1458333.09462.2282889.09462.082464 0 .1649311-.03125.2282889-.09462.1258689-.125869.1258689-.329867 0-.4566l-2.9695545-2.968658h7.9262214c.1779511 0 .3229111-.144098.3229111-.322911 0-.1779511-.1440978-.3229111-.3229111-.3229111h-7.9262214l2.9686658-2.9686667c.1267356-.1258689.1267356-.3298666 0-.4557333z"/></g></svg>
